outputs/icons/image/slide_show_round.svg

<svg xmlns="http://www.w3.org/2000/svg" width="1200" height="1200" fill="none"><g clip-path="url(#a)"><path fill="#000" d="M500 452v296c0 21 24 32.5 40.5 19.5l185-148c12.5-10 12.5-29 0-39l-185-148C524 419.5 500 431 500 452m550-152.252C1050 216.905 982.845 150 900 150H300c-82.843 0-150 67.115-150 149.957v600.088C150 982.885 217.144 1050 299.988 1050H900.25c82.845 0 149.75-67.145 149.75-149.985zM900 950H300c-27.5 0-50-22.5-50-50V300c0-27.5 22.5-50 50-50h600c27.5 0 50 22.5 50 50v600c0 27.5-22.5 50-50 50"/></g><defs><clipPath id="a"><path fill="#fff" d="M0 0h1200v1200H0z"/></clipPath></defs></svg>

<svg width="1200" height="1200" viewBox="0 0 1200 1200" fill="none" xmlns="http://www.w3.org/2000/svg"><g clip-path="url(#clip0_238_2750)"><path d="M500 452V748C500 769 524 780.5 540.5 767.5L725.5 619.5C738 609.5 738 590.5 725.5 580.5L540.5 432.5C524 419.5 500 431 500 452ZM1050 299.748C1050 216.905 982.845 150 900 150H300C217.157 150 150 217.115 150 299.957C150 491.006 150 708.995 150 900.045C150 982.885 217.144 1050 299.988 1050C464.52 1050 728.05 1050 900.25 1050C983.095 1050 1050 982.855 1050 900.015C1050 735.48 1050 471.948 1050 299.748ZM900 950H300C272.5 950 250 927.5 250 900V300C250 272.5 272.5 250 300 250H900C927.5 250 950 272.5 950 300V900C950 927.5 927.5 950 900 950Z" fill="black"/></g><defs><clipPath id="clip0_238_2750"><path width="24" fill="white" d="M0 0H1200V1200H0V0z"/></clipPath></defs></svg>
